X:195
T: Ceangulla Slide (a)
S: "Johnny O'Leary of Sliabh Luachra" (#308a)
Z: B.Black
L: 1/8
M: 12/8
Q: 350
R: slide
K: D
d2B AFA d2c d2f|e2f g2e fed B/c/BA|
dzB AF/G/A d2c dze|f2b afd e3 d3 :|
gfg bag fdf afd|e2f a2g fed B/c/BA|
dzB AFA d2A d2e|fbg afd e3 d3 :|
